X: 41521
T: Unbuttoned
R: hornpipe
M: 4/4
K: Dmajor
|:D>EF>G A<dA>G|A<dA>G A<dA>D|D>EF>G A<dA>G|(3FGA (3GFE D>EC>A,|
D>EF>G A<dA>G|A<dA>d (3efg f2|(3efe d2 c2 (3efe|[M: 2/4] (3dcA (3GFE:|
M: 4/4
|:D>ff>a g>ef>a|g>ef>a g>ec/e/c|D2 f>a g>ea>g|e>dd>e c>AG>E|
D>ff>a g>ef>a|g>eA>c e/e/ee>f|g>ba>g f>de>d|c2 (3efe (3dcA (3GFE:|

